icons/octagon-24.svg

<?xml version="1.0" encoding="UTF-8"?><svg id="icons" xmlns="http://www.w3.org/2000/svg" viewBox="0 0 24 24"><path d="m16.84998,1h-8.69995L2,7.14996v8.70001l6.15002,6.15002h8.69995l6.15002-6.15002V7.14996l-6.15002-6.14996Zm5.15002,14.42999l-5.56,5.57001h-7.88l-5.56-5.57001v-7.87l5.56-5.56h7.88l5.56,5.56v7.87Z" style="stroke-width:0px;"/><rect width="24" height="24" style="fill:none; stroke-width:0px;"/></svg>

<svg xmlns="http://www.w3.org/2000/svg" viewBox="0 0 24 24"><path d="M16.85 1h-8.7L2 7.15v8.7L8.15 22h8.7L23 15.85v-8.7L16.85 1zM22 15.43L16.44 21H8.56L3 15.43V7.56L8.56 2h7.88L22 7.56v7.87z" stroke-width="0"/><path fill="none" stroke-width="0" d="M0 0h24v24H0z"/></svg>
